public/img/psychology/b9-3.svg

<?xml version="1.0" encoding="UTF-8"?> <svg xmlns="http://www.w3.org/2000/svg" width="122" height="144" viewBox="0 0 122 144" fill="none"> <path opacity="0.2" d="M0.98376 72L121.5 0.875663V143.124L0.98376 72Z" stroke="white"></path> <path d="M74 79L80.2168 74.3373C81.4126 73.4406 81.3626 71.6305 80.1187 70.8013L73.0352 66.079C71.5952 65.1191 69.6667 66.1513 69.6667 67.8818V81.1667C69.6667 83.56 71.6067 85.5 74 85.5H84.8333C89.6197 85.5 93.5 81.6197 93.5 76.8333V68.1667C93.5 63.3802 89.6197 59.5 84.8333 59.5H63.1667C58.3802 59.5 54.5 63.3802 54.5 68.1667V76.8333C54.5 81.6197 58.3802 85.5 63.1667 85.5H65.3333" stroke="white" stroke-linecap="round"></path> </svg>

<svg xmlns="http://www.w3.org/2000/svg" width="122" height="144" fill="none"><path opacity=".2" d="M.984 72L121.5.876v142.248L.984 72z" stroke="#fff"/><path d="M74 79l6.217-4.663a2.167 2.167 0 00-.098-3.536l-7.084-4.722c-1.44-.96-3.368.072-3.368 1.803v13.285A4.333 4.333 0 0074 85.5h10.833a8.667 8.667 0 008.667-8.667v-8.666a8.667 8.667 0 00-8.667-8.667H63.167a8.667 8.667 0 00-8.667 8.667v8.666a8.667 8.667 0 008.667 8.667h2.166" stroke="#fff" stroke-linecap="round"/></svg>
